(compassLogo_250)
(T2 D=3.175 CR=0 - ZMIN=-6.35 - flat end mill)
G90
G17
G21
G28 G91 Z0
G90

(Trace1)
M800
T2
S5000 M3
G17 G90
M8
G0 X-14.794 Y-25.624
Z5.08
G1 Z-2.75 F338.7
X-17.5 Y-30.311 Z-2.943 F1016
Z5.08
G0 X-8.619 Y-14.928
G1 Z-2.309 F338.7
X17.5 Y30.311 Z-0.443 F1016
Z5.08

(Trace1 2)
M800
G0 X5.944 Y22.645
G1 Z5.08 F338.7
Z-2.879
X5.002 Y22.873 Z-2.865 F1016
X4.051 Y23.061 Z-2.85
X3.093 Y23.21 Z-2.832
X2.129 Y23.319 Z-2.813
X1.162 Y23.388 Z-2.792
X0.193 Y23.417 Z-2.769
X-0.776 Y23.406 Z-2.744
X-1.744 Y23.355 Z-2.718
X-2.709 Y23.264 Z-2.69
X-3.669 Y23.133 Z-2.66
X-4.623 Y22.963 Z-2.629
X-5.569 Y22.753 Z-2.596
X-6.506 Y22.504 Z-2.562
X-7.431 Y22.217 Z-2.526
X-8.344 Y21.892 Z-2.489
X-9.242 Y21.53 Z-2.451
X-10.125 Y21.13 Z-2.412
X-10.99 Y20.695 Z-2.371
X-11.837 Y20.224 Z-2.33
X-12.663 Y19.718 Z-2.287
X-13.467 Y19.179 Z-2.244
X-14.249 Y18.607 Z-2.199
X-15.006 Y18.003 Z-2.154
X-15.738 Y17.368 Z-2.109
X-16.442 Y16.704 Z-2.062
X-17.119 Y16.01 Z-2.015
X-17.766 Y15.29 Z-1.968
X-18.383 Y14.543 Z-1.92
X-18.968 Y13.772 Z-1.872
X-19.521 Y12.977 Z-1.824
X-20.04 Y12.159 Z-1.776
X-20.525 Y11.321 Z-1.727
X-20.976 Y10.464 Z-1.679
X-21.39 Y9.588 Z-1.63
X-21.767 Y8.697 Z-1.582
X-22.108 Y7.79 Z-1.535
X-22.41 Y6.87 Z-1.487
X-22.674 Y5.938 Z-1.44
X-22.9 Y4.996 Z-1.394
X-23.086 Y4.046 Z-1.348
X-23.232 Y3.089 Z-1.303
X-23.339 Y2.126 Z-1.259
X-23.406 Y1.16 Z-1.215
X-23.433 Y0.191 Z-1.172
X-23.42 Y-0.777 Z-1.131
X-23.367 Y-1.745 Z-1.09
X-23.274 Y-2.709 Z-1.051
X-23.141 Y-3.669 Z-1.013
X-22.968 Y-4.622 Z-0.976
X-22.756 Y-5.568 Z-0.94
X-22.505 Y-6.504 Z-0.906
X-22.216 Y-7.428 Z-0.873
X-21.889 Y-8.34 Z-0.842
X-21.524 Y-9.238 Z-0.812
X-21.122 Y-10.12 Z-0.784
X-20.684 Y-10.985 Z-0.757
X-20.211 Y-11.831 Z-0.732
X-19.704 Y-12.657 Z-0.709
X-19.162 Y-13.461 Z-0.688
X-18.588 Y-14.242 Z-0.669
X-17.982 Y-14.999 Z-0.651
X-17.345 Y-15.73 Z-0.635
X-16.679 Y-16.434 Z-0.621
X-15.983 Y-17.11 Z-0.61
X-15.261 Y-17.756 Z-0.6
X-14.513 Y-18.373 Z-0.592
X-13.739 Y-18.958 Z-0.586
X-12.943 Y-19.51 Z-0.582
X-12.124 Y-20.029 Z-0.58
X-11.284 Y-20.514
X-10.425 Y-20.964 Z-0.582
X-9.548 Y-21.377 Z-0.586
X-8.655 Y-21.755 Z-0.592
X-7.747 Y-22.095 Z-0.6
X-6.826 Y-22.397 Z-0.61
X-5.893 Y-22.661 Z-0.621
X-4.95 Y-22.886 Z-0.635
X-3.998 Y-23.072 Z-0.651
X-3.04 Y-23.219 Z-0.669
X-2.076 Y-23.325 Z-0.688
X-1.109 Y-23.392 Z-0.709
X-0.14 Y-23.419 Z-0.732
X0.829 Y-23.406 Z-0.757
X1.797 Y-23.353 Z-0.784
X2.761 Y-23.259 Z-0.812
X3.721 Y-23.126 Z-0.842
X4.675 Y-22.954 Z-0.873
X5.62 Y-22.742 Z-0.906
X6.556 Y-22.491 Z-0.94
X7.481 Y-22.202 Z-0.976
X8.393 Y-21.875 Z-1.013
X9.291 Y-21.51 Z-1.051
X10.173 Y-21.109 Z-1.09
X11.037 Y-20.671 Z-1.131
X11.882 Y-20.198 Z-1.172
X12.707 Y-19.691 Z-1.215
X13.511 Y-19.15 Z-1.259
X14.291 Y-18.576 Z-1.303
X15.047 Y-17.97 Z-1.348
X15.777 Y-17.333 Z-1.394
X16.48 Y-16.667 Z-1.44
X17.155 Y-15.973 Z-1.487
X17.8 Y-15.251 Z-1.535
X18.415 Y-14.503 Z-1.582
X18.999 Y-13.73 Z-1.63
X19.55 Y-12.933 Z-1.679
X20.067 Y-12.115 Z-1.727
X20.551 Y-11.276 Z-1.776
X20.999 Y-10.417 Z-1.824
X21.411 Y-9.541 Z-1.872
X21.786 Y-8.648 Z-1.92
X22.124 Y-7.741 Z-1.968
X22.425 Y-6.82 Z-2.015
X22.687 Y-5.888 Z-2.062
X22.91 Y-4.945 Z-2.109
X23.094 Y-3.994 Z-2.154
X23.238 Y-3.037 Z-2.199
X23.343 Y-2.074 Z-2.244
X23.408 Y-1.107 Z-2.287
X23.433 Y-0.139 Z-2.33
X23.417 Y0.83 Z-2.371
X23.362 Y1.797 Z-2.412
X23.266 Y2.761 Z-2.451
X23.131 Y3.72 Z-2.489
X22.956 Y4.673 Z-2.526
X22.742 Y5.618 Z-2.562
X22.489 Y6.554 Z-2.596
X22.198 Y7.478 Z-2.629
X21.868 Y8.389 Z-2.66
X21.501 Y9.286 Z-2.69
X21.098 Y10.167 Z-2.718
X20.658 Y11.031 Z-2.744
X20.183 Y11.876 Z-2.769
X19.673 Y12.7 Z-2.792
X19.13 Y13.503 Z-2.813
X18.554 Y14.283 Z-2.832
X17.946 Y15.038 Z-2.85
X17.308 Y15.768 Z-2.865
X16.639 Y16.47 Z-2.879
Z5.08

(2D Contour1 3)
M800
G0 X-15.567 Y-39.237
G1 Z5.08 F338.7
Z0.635
Z-6.033
X-15.568 Y-39.229 Z-6.103 F1016
X-15.573 Y-39.206 Z-6.17
X-15.579 Y-39.169 Z-6.23
X-15.588 Y-39.119 Z-6.281
X-15.599 Y-39.06 Z-6.319
X-15.611 Y-38.994 Z-6.342
X-15.623 Y-38.925 Z-6.35
X-15.68 Y-38.612
X-15.7 Y-38.544
X-15.735 Y-38.482
X-15.783 Y-38.43
X-15.842 Y-38.389
X-15.907 Y-38.362
X-15.978 Y-38.351
X-16.049 Y-38.356
X-16.402 Y-38.412
X-16.757 Y-38.452
X-17.113 Y-38.477
X-17.47 Y-38.486
X-17.827 Y-38.479
X-18.184 Y-38.457
X-18.539 Y-38.42
X-18.893 Y-38.366
X-19.243 Y-38.298
X-19.591 Y-38.214
X-19.934 Y-38.115
X-20.273 Y-38.001
X-20.606 Y-37.873
X-20.934 Y-37.73
X-21.254 Y-37.573
X-21.568 Y-37.402
X-21.874 Y-37.217
X-22.172 Y-37.02
X-22.46 Y-36.809
X-22.74 Y-36.586
X-23.009 Y-36.351
X-23.267 Y-36.105
X-23.515 Y-35.847
X-23.751 Y-35.579
X-23.975 Y-35.301
X-24.187 Y-35.013
X-24.386 Y-34.716
X-24.572 Y-34.411
X-24.745 Y-34.098
X-24.903 Y-33.778
X-25.048 Y-33.451
X-25.178 Y-33.119
X-25.293 Y-32.78
X-25.394 Y-32.437
X-25.479 Y-32.091
X-25.549 Y-31.74
X-25.604 Y-31.387
X-25.643 Y-31.032
X-25.667 Y-30.676
X-25.675 Y-30.318
X-25.668 Y-29.961
X-25.644 Y-29.605
X-25.606 Y-29.249
X-25.552 Y-28.896
X-25.482 Y-28.546
X-25.397 Y-28.199
X-25.298 Y-27.856
X-25.183 Y-27.517
X-25.053 Y-27.184
X-24.91 Y-26.857
X-24.752 Y-26.537
X-24.58 Y-26.223
X-22.933 Y-23.371
X-22.862 Y-23.233
X-22.805 Y-23.088
X-22.762 Y-22.939
X-22.734 Y-22.786
X-22.721 Y-22.632
X-22.723 Y-22.476
X-22.741 Y-22.322
X-22.773 Y-22.17
X-22.82 Y-22.022
X-22.882 Y-21.879
X-22.957 Y-21.743
X-23.044 Y-21.615
X-23.144 Y-21.497
X-23.621 Y-20.972
X-24.085 Y-20.437
X-24.538 Y-19.892
X-24.978 Y-19.336
X-25.405 Y-18.771
X-25.82 Y-18.196
X-26.222 Y-17.613
X-26.61 Y-17.02
X-26.985 Y-16.419
X-27.347 Y-15.809
X-27.694 Y-15.192
X-28.028 Y-14.567
X-28.348 Y-13.934
X-28.653 Y-13.295
X-28.944 Y-12.649
X-29.221 Y-11.997
X-29.483 Y-11.338
X-29.729 Y-10.674
X-29.961 Y-10.004
X-30.178 Y-9.33
X-30.38 Y-8.65
X-30.566 Y-7.967
X-30.737 Y-7.279
X-30.893 Y-6.588
X-31.033 Y-5.893
X-31.157 Y-5.195
X-31.266 Y-4.495
X-31.359 Y-3.793
X-31.436 Y-3.088
X-31.498 Y-2.382
X-31.543 Y-1.675
X-31.573 Y-0.967
X-31.586 Y-0.259
X-31.584 Y0.45
X-31.566 Y1.158
X-31.532 Y1.866
X-31.483 Y2.573
Z-4.826
X-31.417 Y3.277
X-31.336 Y3.979
X-31.239 Y4.679
X-31.127 Y5.376
X-30.999 Y6.071
X-30.855 Y6.763
X-30.696 Y7.452
X-30.522 Y8.137
X-30.332 Y8.818
Z-6.35 F338.7
X-30.128 Y9.49 F1016
X-29.91 Y10.158
X-29.676 Y10.821
X-29.428 Y11.478
X-29.166 Y12.13
X-28.889 Y12.776
X-28.597 Y13.415
X-28.292 Y14.048
X-27.972 Y14.674
X-27.639 Y15.293
X-27.292 Y15.904
X-26.931 Y16.507
X-26.557 Y17.102
X-26.17 Y17.689
X-25.77 Y18.266
X-25.358 Y18.835
X-24.932 Y19.394
X-24.495 Y19.944
X-24.045 Y20.484
X-23.584 Y21.014
X-23.11 Y21.533
X-22.625 Y22.042
X-22.13 Y22.54
X-21.623 Y23.027
X-21.105 Y23.502
X-20.577 Y23.966
X-20.039 Y24.418
X-19.491 Y24.857
X-18.933 Y25.285
X-18.366 Y25.7
X-17.79 Y26.102
X-17.205 Y26.491
X-16.611 Y26.867
X-16.009 Y27.23
X-15.399 Y27.579
X-14.782 Y27.915
X-14.158 Y28.237
X-13.526 Y28.545
X-12.888 Y28.839
X-12.243 Y29.118
X-11.592 Y29.384
X-10.936 Y29.634
X-10.274 Y29.87
X-9.607 Y30.091
X-8.935 Y30.298
X-8.259 Y30.489
X-7.578 Y30.665
X-6.894 Y30.826
X-6.207 Y30.972
X-5.516 Y31.102
X-4.823 Y31.217
X-4.128 Y31.317
X-3.43 Y31.401
X-2.731 Y31.469
X-2.03 Y31.522
X-1.328 Y31.56
X-0.626 Y31.581
X0.077 Y31.587
X0.78 Y31.578
X1.482 Y31.553
X2.183 Y31.512
X2.884 Y31.456
X3.583 Y31.384
X4.28 Y31.296
X4.975 Y31.193
X5.668 Y31.075
X6.358 Y30.941
X7.044 Y30.792
X7.197 Y30.765
X7.352 Y30.753
X7.507 Y30.756
X7.662 Y30.774
X7.813 Y30.807
X7.961 Y30.855
X8.103 Y30.917
X8.239 Y30.993
X8.366 Y31.081
X8.485 Y31.182
X8.593 Y31.294
X8.689 Y31.415
X8.773 Y31.546
X8.898 Y31.762
Z-4.826
X10.42 Y34.398
X10.596 Y34.689
X10.784 Y34.971
X10.983 Y35.246
X11.193 Y35.512
X11.414 Y35.769
X11.646 Y36.017
X11.888 Y36.255
X12.139 Y36.483
X12.4 Y36.7
X12.669 Y36.906
Z-6.35 F338.7
X12.964 Y37.112 F1016
X13.267 Y37.305
X13.579 Y37.484
X13.898 Y37.649
X14.224 Y37.801
X14.557 Y37.938
X14.895 Y38.06
X15.238 Y38.167
X15.585 Y38.258
X15.937 Y38.335
X16.291 Y38.396
X16.648 Y38.441
X17.006 Y38.471
X17.365 Y38.485
X17.724 Y38.483
X18.084 Y38.465
X18.441 Y38.431
X18.798 Y38.382
X19.151 Y38.317
X19.502 Y38.237
X19.848 Y38.141
X20.19 Y38.031
X20.527 Y37.905
X20.858 Y37.764
X21.182 Y37.61
X21.5 Y37.441
X21.809 Y37.258
X22.11 Y37.062
X22.403 Y36.853
X22.686 Y36.631
X22.958 Y36.397
X23.221 Y36.151
X23.472 Y35.894
X23.712 Y35.626
X23.939 Y35.348
X24.154 Y35.06
X24.357 Y34.762
X24.546 Y34.457
X24.721 Y34.143
X24.883 Y33.822
X25.03 Y33.494
X25.163 Y33.16
X25.28 Y32.82
X25.383 Y32.476
X25.471 Y32.127
X25.543 Y31.775
X25.599 Y31.42
X25.64 Y31.063
X25.666 Y30.704
X25.675 Y30.345
X25.668 Y29.985
X25.646 Y29.626
X25.608 Y29.269
X25.555 Y28.913
X25.485 Y28.561
X25.401 Y28.211
X25.301 Y27.866
X25.186 Y27.525
X25.056 Y27.19
X24.911 Y26.861
X24.753 Y26.539
X24.58 Y26.223
X22.933 Y23.371
X22.862 Y23.233
X22.805 Y23.088
X22.762 Y22.939
X22.734 Y22.786
X22.721 Y22.632
X22.723 Y22.476
X22.741 Y22.322
X22.773 Y22.17
X22.82 Y22.022
X22.882 Y21.879
X22.957 Y21.743
X23.044 Y21.615
X23.144 Y21.497
X23.621 Y20.972
X24.085 Y20.437
X24.538 Y19.892
X24.978 Y19.336
X25.405 Y18.771
X25.82 Y18.196
X26.222 Y17.613
X26.61 Y17.02
X26.985 Y16.419
X27.347 Y15.809
X27.694 Y15.192
X28.028 Y14.567
X28.348 Y13.934
X28.653 Y13.295
X28.944 Y12.649
X29.221 Y11.997
X29.483 Y11.338
X29.729 Y10.674
X29.961 Y10.004
X30.178 Y9.33
X30.38 Y8.65
X30.566 Y7.967
X30.737 Y7.279
X30.893 Y6.588
X31.033 Y5.893
X31.157 Y5.195
X31.266 Y4.495
X31.359 Y3.793
X31.436 Y3.088
X31.498 Y2.382
X31.543 Y1.675
X31.573 Y0.967
X31.586 Y0.259
X31.584 Y-0.45
X31.566 Y-1.158
X31.532 Y-1.866
X31.483 Y-2.573
Z-4.826
X31.417 Y-3.277
X31.336 Y-3.979
X31.239 Y-4.679
X31.127 Y-5.376
X30.999 Y-6.071
X30.855 Y-6.763
X30.696 Y-7.452
X30.522 Y-8.137
X30.332 Y-8.818
Z-6.35 F338.7
X30.128 Y-9.49 F1016
X29.91 Y-10.158
X29.676 Y-10.821
X29.428 Y-11.478
X29.166 Y-12.13
X28.889 Y-12.776
X28.597 Y-13.415
X28.292 Y-14.048
X27.972 Y-14.674
X27.639 Y-15.293
X27.292 Y-15.904
X26.931 Y-16.507
X26.557 Y-17.102
X26.17 Y-17.689
X25.77 Y-18.266
X25.358 Y-18.835
X24.932 Y-19.394
X24.495 Y-19.944
X24.045 Y-20.484
X23.584 Y-21.014
X23.11 Y-21.533
X22.625 Y-22.042
X22.13 Y-22.54
X21.623 Y-23.027
X21.105 Y-23.502
X20.577 Y-23.966
X20.039 Y-24.418
X19.491 Y-24.857
X18.933 Y-25.285
X18.366 Y-25.7
X17.79 Y-26.102
X17.205 Y-26.491
X16.611 Y-26.867
X16.009 Y-27.23
X15.399 Y-27.579
X14.782 Y-27.915
X14.158 Y-28.237
X13.526 Y-28.545
X12.888 Y-28.839
X12.243 Y-29.118
X11.592 Y-29.384
X10.936 Y-29.634
X10.274 Y-29.87
X9.607 Y-30.091
X8.935 Y-30.298
X8.259 Y-30.489
X7.578 Y-30.665
X6.894 Y-30.826
X6.207 Y-30.972
X5.516 Y-31.102
X4.823 Y-31.217
X4.128 Y-31.317
X3.43 Y-31.401
X2.731 Y-31.469
X2.03 Y-31.522
X1.328 Y-31.56
X0.626 Y-31.581
X-0.077 Y-31.587
X-0.78 Y-31.578
X-1.482 Y-31.553
X-2.183 Y-31.512
X-2.884 Y-31.456
X-3.583 Y-31.384
X-4.28 Y-31.296
X-4.975 Y-31.193
X-5.668 Y-31.075
X-6.358 Y-30.941
X-7.044 Y-30.792
X-7.197 Y-30.765
X-7.352 Y-30.753
X-7.507 Y-30.756
X-7.662 Y-30.774
X-7.813 Y-30.807
X-7.961 Y-30.855
X-8.103 Y-30.917
X-8.239 Y-30.993
X-8.366 Y-31.081
X-8.485 Y-31.182
X-8.593 Y-31.294
X-8.689 Y-31.415
X-8.773 Y-31.546
X-8.898 Y-31.762
Z-4.826
X-10.42 Y-34.398
X-10.596 Y-34.689
X-10.784 Y-34.971
X-10.983 Y-35.246
X-11.193 Y-35.512
X-11.414 Y-35.769
X-11.646 Y-36.017
X-11.888 Y-36.255
X-12.139 Y-36.483
X-12.4 Y-36.7
X-12.669 Y-36.906
Z-6.35 F338.7
X-12.945 Y-37.099 F1016
X-13.229 Y-37.281
X-13.52 Y-37.452
X-13.818 Y-37.61
X-14.122 Y-37.755
X-14.432 Y-37.888
X-14.747 Y-38.008
X-15.067 Y-38.115
X-15.391 Y-38.209
X-15.718 Y-38.289
X-16.049 Y-38.356
X-16.117 Y-38.376
X-16.179 Y-38.411
X-16.231 Y-38.459
X-16.272 Y-38.518
X-16.298 Y-38.584
X-16.309 Y-38.654
X-16.305 Y-38.725
X-16.248 Y-39.037
X-16.236 Y-39.107 Z-6.342
X-16.224 Y-39.173 Z-6.319
X-16.213 Y-39.232 Z-6.281
X-16.204 Y-39.282 Z-6.23
X-16.198 Y-39.319 Z-6.17
X-16.193 Y-39.342 Z-6.103
X-16.192 Y-39.35 Z-6.033
G0 Z5.08
M9
G28 G91 Z0
G90
G28
M30
