%
:O1001
(T2 D=3.175 CR=0 - ZMIN=-7.366 - flat end mill)
N10 G90
N11 G17
N12 G21
N13 G28 G91 Z0
N14 G90
(2D Contour1)
N15 T2
N16 S5000 M3
N17 G17 G90
N18 G0 X214.729 Y66.016
N19 Z15.24
N20 G0 Z5.08
N21 G1 Z0.635 F338.7
N22 Z-7.366
N23 Y78.016 F1016
N24 X214.721 Y78.335
N25 X214.698 Y78.654
N26 X214.66 Y78.971
N27 X214.607 Y79.286
N28 X214.539 Y79.599
N29 X214.457 Y79.907
N30 X214.359 Y80.211
N31 X214.248 Y80.511
N32 X214.122 Y80.804
N33 X213.982 Y81.092
N34 X213.829 Y81.372
N35 X213.663 Y81.645
N36 X213.484 Y81.91
N37 X213.292 Y82.165
N38 X213.089 Y82.412
N39 X212.874 Y82.648
N40 X212.648 Y82.874
N41 X212.412 Y83.089
N42 X212.165 Y83.292
N43 X211.91 Y83.484
N44 X211.645 Y83.663
N45 X211.372 Y83.829
N46 X211.092 Y83.982
N47 X210.804 Y84.122
N48 X210.511 Y84.248
N49 X210.211 Y84.359
N50 X209.907 Y84.457
N51 X209.599 Y84.539
N52 X209.286 Y84.607
N53 X208.971 Y84.66
N54 X208.654 Y84.698
N55 X208.335 Y84.721
N56 X208.016 Y84.729
N57 X174.016
N58 X173.697 Y84.721
N59 X173.378 Y84.698
N60 X173.061 Y84.66
N61 X172.746 Y84.607
N62 X172.433 Y84.539
N63 X172.125 Y84.457
N64 X171.821 Y84.359
N65 X171.521 Y84.248
N66 X171.228 Y84.122
N67 X170.94 Y83.982
N68 X170.66 Y83.829
N69 X170.387 Y83.663
N70 X170.122 Y83.484
N71 X169.867 Y83.292
N72 X169.62 Y83.089
N73 X169.384 Y82.874
N74 X169.158 Y82.648
N75 X168.943 Y82.412
N76 X168.74 Y82.165
N77 X168.548 Y81.91
N78 X168.369 Y81.645
N79 X168.203 Y81.372
N80 X168.05 Y81.092
N81 X167.91 Y80.804
N82 X167.784 Y80.511
N83 X167.673 Y80.211
N84 X167.575 Y79.907
N85 X167.493 Y79.599
N86 X167.425 Y79.286
N87 X167.372 Y78.971
N88 X167.334 Y78.654
N89 X167.311 Y78.335
N90 X167.303 Y78.016
N91 Y54.016
N92 X167.311 Y53.697
N93 X167.334 Y53.378
N94 X167.372 Y53.061
N95 X167.425 Y52.746
N96 X167.493 Y52.433
N97 X167.575 Y52.125
N98 X167.673 Y51.821
N99 X167.784 Y51.521
N100 X167.91 Y51.228
N101 X168.05 Y50.94
N102 X168.203 Y50.66
N103 X168.369 Y50.387
N104 X168.548 Y50.122
N105 X168.74 Y49.867
N106 X168.943 Y49.62
N107 X169.158 Y49.384
N108 X169.384 Y49.158
N109 X169.62 Y48.943
N110 X169.867 Y48.74
N111 X170.122 Y48.548
N112 X170.387 Y48.369
N113 X170.66 Y48.203
N114 X170.94 Y48.05
N115 X171.228 Y47.91
N116 X171.521 Y47.784
N117 X171.821 Y47.673
N118 X172.125 Y47.575
N119 X172.433 Y47.493
N120 X172.746 Y47.425
N121 X173.061 Y47.372
N122 X173.378 Y47.334
N123 X173.697 Y47.311
N124 X174.016 Y47.304
N125 X208.016
N126 X208.335 Y47.311
N127 X208.654 Y47.334
N128 X208.971 Y47.372
N129 X209.286 Y47.425
N130 X209.599 Y47.493
N131 X209.907 Y47.575
N132 X210.211 Y47.673
N133 X210.511 Y47.784
N134 X210.804 Y47.91
N135 X211.092 Y48.05
N136 X211.372 Y48.203
N137 X211.645 Y48.369
N138 X211.91 Y48.548
N139 X212.165 Y48.74
N140 X212.412 Y48.943
N141 X212.648 Y49.158
N142 X212.874 Y49.384
N143 X213.089 Y49.62
N144 X213.292 Y49.867
N145 X213.484 Y50.122
N146 X213.663 Y50.387
N147 X213.829 Y50.66
N148 X213.982 Y50.94
N149 X214.122 Y51.228
N150 X214.248 Y51.521
N151 X214.359 Y51.821
N152 X214.457 Y52.125
N153 X214.539 Y52.433
N154 X214.607 Y52.746
N155 X214.66 Y53.061
N156 X214.698 Y53.378
N157 X214.721 Y53.697
N158 X214.729 Y54.016
N159 Y66.016
N160 G0 Z5.08
N161 X353.016 Y-0.572
N162 G1 Z0.635 F338.7
N163 Z-7.366
N164 X9.016 F1016
N165 X8.63 Y-0.564
N166 X8.245 Y-0.54
N167 X7.86 Y-0.502
N168 X7.478 Y-0.447
N169 X7.098 Y-0.378
N170 X6.722 Y-0.293
N171 X6.349 Y-0.193
N172 X5.98 Y-0.078
N173 X5.616 Y0.052
N174 X5.258 Y0.196
N175 X4.906 Y0.354
N176 X4.56 Y0.527
N177 X4.222 Y0.713
N178 X3.892 Y0.913
N179 X3.57 Y1.126
N180 X3.256 Y1.351
N181 X2.952 Y1.589
N182 X2.658 Y1.84
N183 X2.375 Y2.101
N184 X2.101 Y2.375
N185 X1.84 Y2.658
N186 X1.589 Y2.952
N187 X1.351 Y3.256
N188 X1.126 Y3.57
N189 X0.913 Y3.892
N190 X0.713 Y4.222
N191 X0.527 Y4.56
N192 X0.354 Y4.906
N193 X0.196 Y5.258
N194 X0.052 Y5.616
N195 X-0.078 Y5.98
N196 X-0.193 Y6.349
N197 X-0.293 Y6.722
N198 X-0.378 Y7.098
N199 X-0.447 Y7.478
N200 X-0.502 Y7.86
N201 X-0.54 Y8.245
N202 X-0.564 Y8.63
N203 X-0.572 Y9.016
N204 Y243.016
N205 X-0.564 Y243.402
N206 X-0.54 Y243.787
N207 X-0.502 Y244.172
N208 X-0.447 Y244.554
N209 X-0.378 Y244.934
N210 X-0.293 Y245.31
N211 X-0.193 Y245.683
N212 X-0.078 Y246.052
N213 X0.052 Y246.416
N214 X0.196 Y246.774
N215 X0.354 Y247.126
N216 X0.527 Y247.472
N217 X0.713 Y247.81
N218 X0.913 Y248.14
N219 X1.126 Y248.462
N220 X1.351 Y248.776
N221 X1.589 Y249.08
N222 X1.84 Y249.374
N223 X2.101 Y249.657
N224 X2.375 Y249.931
N225 X2.658 Y250.192
N226 X2.952 Y250.443
N227 X3.256 Y250.681
N228 X3.57 Y250.906
N229 X3.892 Y251.119
N230 X4.222 Y251.319
N231 X4.56 Y251.505
N232 X4.906 Y251.678
N233 X5.258 Y251.836
N234 X5.616 Y251.98
N235 X5.98 Y252.11
N236 X6.349 Y252.225
N237 X6.722 Y252.325
N238 X7.098 Y252.41
N239 X7.478 Y252.479
N240 X7.86 Y252.534
N241 X8.245 Y252.572
N242 X8.63 Y252.596
N243 X9.016 Y252.604
N244 X353.016
N245 X353.402 Y252.596
N246 X353.787 Y252.572
N247 X354.172 Y252.534
N248 X354.554 Y252.479
N249 X354.934 Y252.41
N250 X355.31 Y252.325
N251 X355.683 Y252.225
N252 X356.052 Y252.11
N253 X356.416 Y251.98
N254 X356.774 Y251.836
N255 X357.126 Y251.678
N256 X357.472 Y251.505
N257 X357.81 Y251.319
N258 X358.14 Y251.119
N259 X358.462 Y250.906
N260 X358.776 Y250.681
N261 X359.08 Y250.443
N262 X359.374 Y250.192
N263 X359.657 Y249.931
N264 X359.931 Y249.657
N265 X360.192 Y249.374
N266 X360.443 Y249.08
N267 X360.681 Y248.776
N268 X360.906 Y248.462
N269 X361.119 Y248.14
N270 X361.319 Y247.81
N271 X361.505 Y247.472
N272 X361.678 Y247.126
N273 X361.836 Y246.774
N274 X361.98 Y246.416
N275 X362.11 Y246.052
N276 X362.225 Y245.683
N277 X362.325 Y245.31
N278 X362.41 Y244.934
N279 X362.479 Y244.554
N280 X362.534 Y244.172
N281 X362.572 Y243.787
N282 X362.596 Y243.402
N283 X362.603 Y243.016
N284 Y9.016
N285 X362.596 Y8.63
N286 X362.572 Y8.245
N287 X362.534 Y7.86
N288 X362.479 Y7.478
N289 X362.41 Y7.098
N290 X362.325 Y6.722
N291 X362.225 Y6.349
N292 X362.11 Y5.98
N293 X361.98 Y5.616
N294 X361.836 Y5.258
N295 X361.678 Y4.906
N296 X361.505 Y4.56
N297 X361.319 Y4.222
N298 X361.119 Y3.892
N299 X360.906 Y3.57
N300 X360.681 Y3.256
N301 X360.443 Y2.952
N302 X360.192 Y2.658
N303 X359.931 Y2.375
N304 X359.657 Y2.101
N305 X359.374 Y1.84
N306 X359.08 Y1.589
N307 X358.776 Y1.351
N308 X358.462 Y1.126
N309 X358.14 Y0.913
N310 X357.81 Y0.713
N311 X357.472 Y0.527
N312 X357.126 Y0.354
N313 X356.774 Y0.196
N314 X356.416 Y0.052
N315 X356.052 Y-0.078
N316 X355.683 Y-0.193
N317 X355.31 Y-0.293
N318 X354.934 Y-0.378
N319 X354.554 Y-0.447
N320 X354.172 Y-0.502
N321 X353.787 Y-0.54
N322 X353.402 Y-0.564
N323 X353.016 Y-0.572
N324 G0 Z5.08
N325 X214.729 Y186.016
N326 G1 Z0.635 F338.7
N327 Z-7.366
N328 Y198.016 F1016
N329 X214.721 Y198.335
N330 X214.698 Y198.654
N331 X214.66 Y198.971
N332 X214.607 Y199.286
N333 X214.539 Y199.599
N334 X214.457 Y199.907
N335 X214.359 Y200.211
N336 X214.248 Y200.511
N337 X214.122 Y200.804
N338 X213.982 Y201.092
N339 X213.829 Y201.372
N340 X213.663 Y201.645
N341 X213.484 Y201.91
N342 X213.292 Y202.165
N343 X213.089 Y202.412
N344 X212.874 Y202.648
N345 X212.648 Y202.874
N346 X212.412 Y203.089
N347 X212.165 Y203.292
N348 X211.91 Y203.484
N349 X211.645 Y203.663
N350 X211.372 Y203.829
N351 X211.092 Y203.982
N352 X210.804 Y204.122
N353 X210.511 Y204.248
N354 X210.211 Y204.359
N355 X209.907 Y204.457
N356 X209.599 Y204.539
N357 X209.286 Y204.607
N358 X208.971 Y204.66
N359 X208.654 Y204.698
N360 X208.335 Y204.721
N361 X208.016 Y204.729
N362 X174.016
N363 X173.697 Y204.721
N364 X173.378 Y204.698
N365 X173.061 Y204.66
N366 X172.746 Y204.607
N367 X172.433 Y204.539
N368 X172.125 Y204.457
N369 X171.821 Y204.359
N370 X171.521 Y204.248
N371 X171.228 Y204.122
N372 X170.94 Y203.982
N373 X170.66 Y203.829
N374 X170.387 Y203.663
N375 X170.122 Y203.484
N376 X169.867 Y203.292
N377 X169.62 Y203.089
N378 X169.384 Y202.874
N379 X169.158 Y202.648
N380 X168.943 Y202.412
N381 X168.74 Y202.165
N382 X168.548 Y201.91
N383 X168.369 Y201.645
N384 X168.203 Y201.372
N385 X168.05 Y201.092
N386 X167.91 Y200.804
N387 X167.784 Y200.511
N388 X167.673 Y200.211
N389 X167.575 Y199.907
N390 X167.493 Y199.599
N391 X167.425 Y199.286
N392 X167.372 Y198.971
N393 X167.334 Y198.654
N394 X167.311 Y198.335
N395 X167.303 Y198.016
N396 Y174.016
N397 X167.311 Y173.697
N398 X167.334 Y173.378
N399 X167.372 Y173.061
N400 X167.425 Y172.746
N401 X167.493 Y172.433
N402 X167.575 Y172.125
N403 X167.673 Y171.821
N404 X167.784 Y171.521
N405 X167.91 Y171.228
N406 X168.05 Y170.94
N407 X168.203 Y170.66
N408 X168.369 Y170.387
N409 X168.548 Y170.122
N410 X168.74 Y169.867
N411 X168.943 Y169.62
N412 X169.158 Y169.384
N413 X169.384 Y169.158
N414 X169.62 Y168.943
N415 X169.867 Y168.74
N416 X170.122 Y168.548
N417 X170.387 Y168.369
N418 X170.66 Y168.203
N419 X170.94 Y168.05
N420 X171.228 Y167.91
N421 X171.521 Y167.784
N422 X171.821 Y167.673
N423 X172.125 Y167.575
N424 X172.433 Y167.493
N425 X172.746 Y167.425
N426 X173.061 Y167.372
N427 X173.378 Y167.334
N428 X173.697 Y167.311
N429 X174.016 Y167.303
N430 X208.016
N431 X208.335 Y167.311
N432 X208.654 Y167.334
N433 X208.971 Y167.372
N434 X209.286 Y167.425
N435 X209.599 Y167.493
N436 X209.907 Y167.575
N437 X210.211 Y167.673
N438 X210.511 Y167.784
N439 X210.804 Y167.91
N440 X211.092 Y168.05
N441 X211.372 Y168.203
N442 X211.645 Y168.369
N443 X211.91 Y168.548
N444 X212.165 Y168.74
N445 X212.412 Y168.943
N446 X212.648 Y169.158
N447 X212.874 Y169.384
N448 X213.089 Y169.62
N449 X213.292 Y169.867
N450 X213.484 Y170.122
N451 X213.663 Y170.387
N452 X213.829 Y170.66
N453 X213.982 Y170.94
N454 X214.122 Y171.228
N455 X214.248 Y171.521
N456 X214.359 Y171.821
N457 X214.457 Y172.125
N458 X214.539 Y172.433
N459 X214.607 Y172.746
N460 X214.66 Y173.061
N461 X214.698 Y173.378
N462 X214.721 Y173.697
N463 X214.729 Y174.016
N464 Y186.016
N465 G0 Z5.08
N466 X129.428 Y66.016
N467 G1 Z0.635 F338.7
N468 Z-7.366
N469 Y186.016 F1016
N470 X129.421 Y186.378
N471 X129.397 Y186.739
N472 X129.358 Y187.099
N473 X129.304 Y187.457
N474 X129.234 Y187.812
N475 X129.15 Y188.164
N476 X129.05 Y188.512
N477 X128.935 Y188.855
N478 X128.805 Y189.193
N479 X128.661 Y189.526
N480 X128.503 Y189.851
N481 X128.331 Y190.17
N482 X128.146 Y190.481
N483 X127.947 Y190.783
N484 X127.736 Y191.077
N485 X127.512 Y191.362
N486 X127.276 Y191.636
N487 X127.028 Y191.9
N488 X126.769 Y192.153
N489 X126.5 Y192.395
N490 X126.221 Y192.625
N491 X125.931 Y192.843
N492 X125.633 Y193.048
N493 X125.326 Y193.24
N494 X125.012 Y193.419
N495 X124.689 Y193.584
N496 X124.36 Y193.735
N497 X124.025 Y193.872
N498 X123.684 Y193.994
N499 X123.339 Y194.102
N500 X122.989 Y194.194
N501 X122.635 Y194.271
N502 X122.278 Y194.333
N503 X121.919 Y194.38
N504 X121.559 Y194.411
N505 X121.197 Y194.427
N506 X120.835
N507 X120.473 Y194.411
N508 X120.113 Y194.38
N509 X119.754 Y194.333
N510 X119.397 Y194.271
N511 X119.043 Y194.194
N512 X118.693 Y194.102
N513 X118.348 Y193.994
N514 X118.007 Y193.872
N515 X117.672 Y193.735
N516 X117.343 Y193.584
N517 X117.02 Y193.419
N518 X116.706 Y193.24
N519 X116.399 Y193.048
N520 X116.101 Y192.843
N521 X115.811 Y192.625
N522 X115.532 Y192.395
N523 X115.263 Y192.153
N524 X115.004 Y191.9
N525 X114.756 Y191.636
N526 X114.52 Y191.362
N527 X114.296 Y191.077
N528 X114.085 Y190.783
N529 X113.886 Y190.481
N530 X113.701 Y190.17
N531 X113.529 Y189.851
N532 X113.371 Y189.526
N533 X113.227 Y189.193
N534 X113.097 Y188.855
N535 X112.982 Y188.512
N536 X112.882 Y188.164
N537 X112.798 Y187.812
N538 X112.728 Y187.457
N539 X112.674 Y187.099
N540 X112.635 Y186.739
N541 X112.611 Y186.378
N542 X112.604 Y186.016
N543 Y66.016
N544 X112.611 Y65.654
N545 X112.635 Y65.293
N546 X112.674 Y64.933
N547 X112.728 Y64.575
N548 X112.798 Y64.22
N549 X112.882 Y63.868
N550 X112.982 Y63.52
N551 X113.097 Y63.177
N552 X113.227 Y62.839
N553 X113.371 Y62.506
N554 X113.529 Y62.181
N555 X113.701 Y61.862
N556 X113.886 Y61.551
N557 X114.085 Y61.249
N558 X114.296 Y60.955
N559 X114.52 Y60.67
N560 X114.756 Y60.396
N561 X115.004 Y60.132
N562 X115.263 Y59.879
N563 X115.532 Y59.637
N564 X115.811 Y59.407
N565 X116.101 Y59.189
N566 X116.399 Y58.984
N567 X116.706 Y58.792
N568 X117.02 Y58.613
N569 X117.343 Y58.448
N570 X117.672 Y58.297
N571 X118.007 Y58.16
N572 X118.348 Y58.038
N573 X118.693 Y57.93
N574 X119.043 Y57.838
N575 X119.397 Y57.761
N576 X119.754 Y57.699
N577 X120.113 Y57.652
N578 X120.473 Y57.621
N579 X120.835 Y57.605
N580 X121.197
N581 X121.559 Y57.621
N582 X121.919 Y57.652
N583 X122.278 Y57.699
N584 X122.635 Y57.761
N585 X122.989 Y57.838
N586 X123.339 Y57.93
N587 X123.684 Y58.038
N588 X124.025 Y58.16
N589 X124.36 Y58.297
N590 X124.689 Y58.448
N591 X125.012 Y58.613
N592 X125.326 Y58.792
N593 X125.633 Y58.984
N594 X125.931 Y59.189
N595 X126.221 Y59.407
N596 X126.5 Y59.637
N597 X126.769 Y59.879
N598 X127.028 Y60.132
N599 X127.276 Y60.396
N600 X127.512 Y60.67
N601 X127.736 Y60.955
N602 X127.947 Y61.249
N603 X128.146 Y61.551
N604 X128.331 Y61.862
N605 X128.503 Y62.181
N606 X128.661 Y62.506
N607 X128.805 Y62.839
N608 X128.935 Y63.177
N609 X129.05 Y63.52
N610 X129.15 Y63.868
N611 X129.234 Y64.22
N612 X129.304 Y64.575
N613 X129.358 Y64.933
N614 X129.397 Y65.293
N615 X129.421 Y65.654
N616 X129.428 Y66.016
N617 G0 Z5.08
N618 X74.729
N619 G1 Z0.635 F338.7
N620 Z-7.366
N621 Y78.016 F1016
N622 X74.721 Y78.335
N623 X74.698 Y78.654
N624 X74.66 Y78.971
N625 X74.607 Y79.286
N626 X74.539 Y79.599
N627 X74.457 Y79.907
N628 X74.359 Y80.211
N629 X74.248 Y80.511
N630 X74.122 Y80.804
N631 X73.982 Y81.092
N632 X73.829 Y81.372
N633 X73.663 Y81.645
N634 X73.484 Y81.91
N635 X73.292 Y82.165
N636 X73.089 Y82.412
N637 X72.874 Y82.648
N638 X72.648 Y82.874
N639 X72.412 Y83.089
N640 X72.165 Y83.292
N641 X71.91 Y83.484
N642 X71.645 Y83.663
N643 X71.372 Y83.829
N644 X71.092 Y83.982
N645 X70.804 Y84.122
N646 X70.511 Y84.248
N647 X70.211 Y84.359
N648 X69.907 Y84.457
N649 X69.599 Y84.539
N650 X69.286 Y84.607
N651 X68.971 Y84.66
N652 X68.654 Y84.698
N653 X68.335 Y84.721
N654 X68.016 Y84.729
N655 X34.016
N656 X33.697 Y84.721
N657 X33.378 Y84.698
N658 X33.061 Y84.66
N659 X32.746 Y84.607
N660 X32.433 Y84.539
N661 X32.125 Y84.457
N662 X31.821 Y84.359
N663 X31.521 Y84.248
N664 X31.228 Y84.122
N665 X30.94 Y83.982
N666 X30.66 Y83.829
N667 X30.387 Y83.663
N668 X30.122 Y83.484
N669 X29.867 Y83.292
N670 X29.62 Y83.089
N671 X29.384 Y82.874
N672 X29.158 Y82.648
N673 X28.943 Y82.412
N674 X28.74 Y82.165
N675 X28.548 Y81.91
N676 X28.369 Y81.645
N677 X28.203 Y81.372
N678 X28.05 Y81.092
N679 X27.91 Y80.804
N680 X27.784 Y80.511
N681 X27.673 Y80.211
N682 X27.575 Y79.907
N683 X27.493 Y79.599
N684 X27.425 Y79.286
N685 X27.372 Y78.971
N686 X27.334 Y78.654
N687 X27.311 Y78.335
N688 X27.303 Y78.016
N689 Y54.016
N690 X27.311 Y53.697
N691 X27.334 Y53.378
N692 X27.372 Y53.061
N693 X27.425 Y52.746
N694 X27.493 Y52.433
N695 X27.575 Y52.125
N696 X27.673 Y51.821
N697 X27.784 Y51.521
N698 X27.91 Y51.228
N699 X28.05 Y50.94
N700 X28.203 Y50.66
N701 X28.369 Y50.387
N702 X28.548 Y50.122
N703 X28.74 Y49.867
N704 X28.943 Y49.62
N705 X29.158 Y49.384
N706 X29.384 Y49.158
N707 X29.62 Y48.943
N708 X29.867 Y48.74
N709 X30.122 Y48.548
N710 X30.387 Y48.369
N711 X30.66 Y48.203
N712 X30.94 Y48.05
N713 X31.228 Y47.91
N714 X31.521 Y47.784
N715 X31.821 Y47.673
N716 X32.125 Y47.575
N717 X32.433 Y47.493
N718 X32.746 Y47.425
N719 X33.061 Y47.372
N720 X33.378 Y47.334
N721 X33.697 Y47.311
N722 X34.016 Y47.304
N723 X68.016
N724 X68.335 Y47.311
N725 X68.654 Y47.334
N726 X68.971 Y47.372
N727 X69.286 Y47.425
N728 X69.599 Y47.493
N729 X69.907 Y47.575
N730 X70.211 Y47.673
N731 X70.511 Y47.784
N732 X70.804 Y47.91
N733 X71.092 Y48.05
N734 X71.372 Y48.203
N735 X71.645 Y48.369
N736 X71.91 Y48.548
N737 X72.165 Y48.74
N738 X72.412 Y48.943
N739 X72.648 Y49.158
N740 X72.874 Y49.384
N741 X73.089 Y49.62
N742 X73.292 Y49.867
N743 X73.484 Y50.122
N744 X73.663 Y50.387
N745 X73.829 Y50.66
N746 X73.982 Y50.94
N747 X74.122 Y51.228
N748 X74.248 Y51.521
N749 X74.359 Y51.821
N750 X74.457 Y52.125
N751 X74.539 Y52.433
N752 X74.607 Y52.746
N753 X74.66 Y53.061
N754 X74.698 Y53.378
N755 X74.721 Y53.697
N756 X74.729 Y54.016
N757 Y66.016
N758 G0 Z5.08
N759 Y186.016
N760 G1 Z0.635 F338.7
N761 Z-7.366
N762 Y198.016 F1016
N763 X74.721 Y198.335
N764 X74.698 Y198.654
N765 X74.66 Y198.971
N766 X74.607 Y199.286
N767 X74.539 Y199.599
N768 X74.457 Y199.907
N769 X74.359 Y200.211
N770 X74.248 Y200.511
N771 X74.122 Y200.804
N772 X73.982 Y201.092
N773 X73.829 Y201.372
N774 X73.663 Y201.645
N775 X73.484 Y201.91
N776 X73.292 Y202.165
N777 X73.089 Y202.412
N778 X72.874 Y202.648
N779 X72.648 Y202.874
N780 X72.412 Y203.089
N781 X72.165 Y203.292
N782 X71.91 Y203.484
N783 X71.645 Y203.663
N784 X71.372 Y203.829
N785 X71.092 Y203.982
N786 X70.804 Y204.122
N787 X70.511 Y204.248
N788 X70.211 Y204.359
N789 X69.907 Y204.457
N790 X69.599 Y204.539
N791 X69.286 Y204.607
N792 X68.971 Y204.66
N793 X68.654 Y204.698
N794 X68.335 Y204.721
N795 X68.016 Y204.729
N796 X34.016
N797 X33.697 Y204.721
N798 X33.378 Y204.698
N799 X33.061 Y204.66
N800 X32.746 Y204.607
N801 X32.433 Y204.539
N802 X32.125 Y204.457
N803 X31.821 Y204.359
N804 X31.521 Y204.248
N805 X31.228 Y204.122
N806 X30.94 Y203.982
N807 X30.66 Y203.829
N808 X30.387 Y203.663
N809 X30.122 Y203.484
N810 X29.867 Y203.292
N811 X29.62 Y203.089
N812 X29.384 Y202.874
N813 X29.158 Y202.648
N814 X28.943 Y202.412
N815 X28.74 Y202.165
N816 X28.548 Y201.91
N817 X28.369 Y201.645
N818 X28.203 Y201.372
N819 X28.05 Y201.092
N820 X27.91 Y200.804
N821 X27.784 Y200.511
N822 X27.673 Y200.211
N823 X27.575 Y199.907
N824 X27.493 Y199.599
N825 X27.425 Y199.286
N826 X27.372 Y198.971
N827 X27.334 Y198.654
N828 X27.311 Y198.335
N829 X27.303 Y198.016
N830 Y174.016
N831 X27.311 Y173.697
N832 X27.334 Y173.378
N833 X27.372 Y173.061
N834 X27.425 Y172.746
N835 X27.493 Y172.433
N836 X27.575 Y172.125
N837 X27.673 Y171.821
N838 X27.784 Y171.521
N839 X27.91 Y171.228
N840 X28.05 Y170.94
N841 X28.203 Y170.66
N842 X28.369 Y170.387
N843 X28.548 Y170.122
N844 X28.74 Y169.867
N845 X28.943 Y169.62
N846 X29.158 Y169.384
N847 X29.384 Y169.158
N848 X29.62 Y168.943
N849 X29.867 Y168.74
N850 X30.122 Y168.548
N851 X30.387 Y168.369
N852 X30.66 Y168.203
N853 X30.94 Y168.05
N854 X31.228 Y167.91
N855 X31.521 Y167.784
N856 X31.821 Y167.673
N857 X32.125 Y167.575
N858 X32.433 Y167.493
N859 X32.746 Y167.425
N860 X33.061 Y167.372
N861 X33.378 Y167.334
N862 X33.697 Y167.311
N863 X34.016 Y167.303
N864 X68.016
N865 X68.335 Y167.311
N866 X68.654 Y167.334
N867 X68.971 Y167.372
N868 X69.286 Y167.425
N869 X69.599 Y167.493
N870 X69.907 Y167.575
N871 X70.211 Y167.673
N872 X70.511 Y167.784
N873 X70.804 Y167.91
N874 X71.092 Y168.05
N875 X71.372 Y168.203
N876 X71.645 Y168.369
N877 X71.91 Y168.548
N878 X72.165 Y168.74
N879 X72.412 Y168.943
N880 X72.648 Y169.158
N881 X72.874 Y169.384
N882 X73.089 Y169.62
N883 X73.292 Y169.867
N884 X73.484 Y170.122
N885 X73.663 Y170.387
N886 X73.829 Y170.66
N887 X73.982 Y170.94
N888 X74.122 Y171.228
N889 X74.248 Y171.521
N890 X74.359 Y171.821
N891 X74.457 Y172.125
N892 X74.539 Y172.433
N893 X74.607 Y172.746
N894 X74.66 Y173.061
N895 X74.698 Y173.378
N896 X74.721 Y173.697
N897 X74.729 Y174.016
N898 Y186.016
N899 G0 Z15.24
N900 G28 G91 Z0
N901 G90
N902 G28
N903 M30
%
