%
:O1001
(T2 D=3.175 CR=0 - ZMIN=-7.366 - flat end mill)
N10 G90
N11 G17
N12 G21
N13 G28 G91 Z0
N14 G90
(2D Contour1)
N15 T2
N16 S5000 M3
N17 G17 G90
N18 G0 X213.776 Y65.699
N19 Z15.24
N20 G0 Z5.08
N21 G1 Z0.635 F338.7
N22 Z-7.049
N23 G18 G2 X214.094 Z-7.366 I214.094 K-7.049 F1016
N24 G1 X214.411
N25 G17 G3 X214.729 Y66.016 I214.411 J66.016
N26 G1 Y78.016
N27 G3 X208.016 Y84.729 I208.016 J78.016
N28 G1 X174.016
N29 G3 X167.303 Y78.016 I174.016 J78.016
N30 G1 Y54.016
N31 G3 X174.016 Y47.304 I174.016 J54.016
N32 G1 X208.016
N33 G3 X214.729 Y54.016 I208.016 J54.016
N34 G1 Y66.016
N35 G3 X214.411 Y66.334 I214.411 J66.016
N36 G1 X214.094
N37 G18 G3 X213.776 Z-7.049 I214.094 K-7.049
N38 G0 Z5.08
N39 X353.333 Y-1.524
N40 G1 Z0.635 F338.7
N41 Z-7.049
N42 G19 G3 Y-1.207 Z-7.366 J-1.207 K-7.049 F1016
N43 G1 Y-0.889
N44 G17 G3 X353.016 Y-0.572 I353.016 J-0.889
N45 G1 X9.016
N46 G2 X-0.572 Y9.016 I9.016 J9.016
N47 G1 Y243.016
N48 G2 X9.016 Y252.604 I9.016 J243.016
N49 G1 X353.016
N50 G2 X362.603 Y243.016 I353.016 J243.016
N51 G1 Y9.016
N52 G2 X353.016 Y-0.572 I353.016 J9.016
N53 G3 X352.698 Y-0.889 I353.016 J-0.889
N54 G1 Y-1.207
N55 G19 G2 Y-1.524 Z-7.049 J-1.207 K-7.049
N56 G0 Z5.08
N57 X213.776 Y185.699
N58 G1 Z0.635 F338.7
N59 Z-7.049
N60 G18 G2 X214.094 Z-7.366 I214.094 K-7.049 F1016
N61 G1 X214.411
N62 G17 G3 X214.729 Y186.016 I214.411 J186.016
N63 G1 Y198.016
N64 G3 X208.016 Y204.729 I208.016 J198.016
N65 G1 X174.016
N66 G3 X167.303 Y198.016 I174.016 J198.016
N67 G1 Y174.016
N68 G3 X174.016 Y167.303 I174.016 J174.016
N69 G1 X208.016
N70 G3 X214.729 Y174.016 I208.016 J174.016
N71 G1 Y186.016
N72 G3 X214.411 Y186.333 I214.411 J186.016
N73 G1 X214.094
N74 G18 G3 X213.776 Z-7.049 I214.094 K-7.049
N75 G0 Z5.08
N76 X128.476 Y65.699
N77 G1 Z0.635 F338.7
N78 Z-7.049
N79 G2 X128.794 Z-7.366 I128.794 K-7.049 F1016
N80 G1 X129.111
N81 G17 G3 X129.428 Y66.016 I129.111 J66.016
N82 G1 Y186.016
N83 G3 X121.016 Y194.429 I121.016 J186.016
N84 X112.604 Y186.016 I121.016 J186.016
N85 G1 Y66.016
N86 G3 X121.016 Y57.604 I121.016 J66.016
N87 X129.428 Y66.016 I121.016 J66.016
N88 X129.111 Y66.334 I129.111 J66.016
N89 G1 X128.794
N90 G18 G3 X128.476 Z-7.049 I128.794 K-7.049
N91 G0 Z5.08
N92 X73.776 Y65.699
N93 G1 Z0.635 F338.7
N94 Z-7.049
N95 G2 X74.093 Z-7.366 I74.093 K-7.049 F1016
N96 G1 X74.411
N97 G17 G3 X74.729 Y66.016 I74.411 J66.016
N98 G1 Y78.016
N99 G3 X68.016 Y84.729 I68.016 J78.016
N100 G1 X34.016
N101 G3 X27.303 Y78.016 I34.016 J78.016
N102 G1 Y54.016
N103 G3 X34.016 Y47.304 I34.016 J54.016
N104 G1 X68.016
N105 G3 X74.729 Y54.016 I68.016 J54.016
N106 G1 Y66.016
N107 G3 X74.411 Y66.334 I74.411 J66.016
N108 G1 X74.093
N109 G18 G3 X73.776 Z-7.049 I74.093 K-7.049
N110 G0 Z5.08
N111 Y185.699
N112 G1 Z0.635 F338.7
N113 Z-7.049
N114 G2 X74.093 Z-7.366 I74.093 K-7.049 F1016
N115 G1 X74.411
N116 G17 G3 X74.729 Y186.016 I74.411 J186.016
N117 G1 Y198.016
N118 G3 X68.016 Y204.729 I68.016 J198.016
N119 G1 X34.016
N120 G3 X27.303 Y198.016 I34.016 J198.016
N121 G1 Y174.016
N122 G3 X34.016 Y167.303 I34.016 J174.016
N123 G1 X68.016
N124 G3 X74.729 Y174.016 I68.016 J174.016
N125 G1 Y186.016
N126 G3 X74.411 Y186.333 I74.411 J186.016
N127 G1 X74.093
N128 G18 G3 X73.776 Z-7.049 I74.093 K-7.049
N129 G0 Z15.24
N130 G17
N131 G28 G91 Z0
N132 G90
N133 G28
N134 M30
%
